X:1
T: The Rock and the Wee Pickle Tow
C:
R:Jig
Q:180
K:F
M:6/8
L:1/16
|:C2|C2D2F2 G2A2c2|d2c2A2 G4cB|A2F2G2 A4G2|A2F2F2 F4FD|
C2D2F2 G2A2c2|d2f2A2 G4cB|A2F2G2 A4G2|A2F2F2 F4:|
|:f2|d2d2f2 c2d2e2|f2e2d2 d2c2A2|c2d2c2 c2d2e2|f2e2d2 c4A2|
B2A2B2 c2d2e2|f2c2A2 G4e2|f2F2G2 A4G2|A2F2F2 F4:|
